icons/ignite-dark.svg

<svg width="256" height="256" viewBox="0 0 256 256" fill="none" xmlns="http://www.w3.org/2000/svg">
<path d="M196 0H60C26.8629 0 0 26.8629 0 60V196C0 229.137 26.8629 256 60 256H196C229.137 256 256 229.137 256 196V60C256 26.8629 229.137 0 196 0Z" fill="#282828"/>
<path d="M128.331 211.647C135.521 211.647 141.35 205.818 141.35 198.628C141.35 191.437 135.521 185.608 128.331 185.608C121.14 185.608 115.312 191.437 115.312 198.628C115.312 205.818 121.14 211.647 128.331 211.647Z" fill="#EAA700"/>
<path d="M126.84 240.328C95.504 240.328 68.9442 219.187 53.9612 182.335C40.7843 149.957 52.3125 113.59 61.1012 102.183L68.3745 92.752L69.4291 104.62C70.4474 116.281 78.6663 130.21 86.6669 133.846C87.8013 134.391 89.0453 134.669 90.3036 134.659C80.3513 111.117 82.1938 86.2787 87.1155 71.5381C96.2435 44.0934 118.997 24.6857 132.089 18.3336L138.938 15L138.768 22.6128C138.283 44.5783 139.677 62.6161 148.054 79.3933C153.473 90.3033 160.746 100.91 167.171 110.305C168.928 112.887 170.638 115.396 172.262 117.821C184.469 136.137 184.651 155.169 180.748 166.879C178.485 173.483 175.12 179.656 170.795 185.136C165.437 191.912 159.085 196.761 152.43 199.173L149.254 190.433C160.067 186.517 168.577 173.959 171.923 163.934C175.123 154.321 174.868 138.477 164.516 122.985C162.916 120.56 161.231 118.136 159.485 115.554C152.903 105.856 145.436 94.9461 139.726 83.5512C131.616 67.3317 129.434 50.4454 129.386 30.7468C117.942 38.699 102.717 54.3003 95.9647 74.4838C94.9222 77.5871 86.2669 105.699 100.729 135.095L102.462 138.598L99.2983 140.914C96.9582 142.648 94.1833 143.7 91.2816 143.952C88.3799 144.205 85.465 143.648 82.8606 142.344C74.375 138.477 67.1017 128.379 63.2347 118.1C57.7433 132.307 53.5369 156.527 62.6164 178.88C76.0964 212.047 99.5286 231.006 126.864 231.006C154.879 231.006 179.681 211.744 193.209 179.487C199.489 164.491 200.483 141.302 195.634 124.318C191.997 111.675 186.627 101.359 177.378 86.8121C175.038 91.758 171.838 96.8251 168.565 99.0071L163.401 91.2731C166.08 89.479 170.674 80.0964 171.644 75.5142L173.85 64.3738L180.093 73.8656C192.785 93.1763 200.046 105.88 204.58 121.724C210.035 140.829 208.871 166.043 201.755 183.038C194.737 199.779 184.433 213.902 171.947 223.902C159.243 234.393 143.315 240.193 126.84 240.328Z" fill="#EE4C2C"/>
</svg>

<svg xmlns="http://www.w3.org/2000/svg" width="256" height="256" fill="none"><path fill="#282828" d="M196 0H60C26.863 0 0 26.863 0 60v136c0 33.137 26.863 60 60 60h136c33.137 0 60-26.863 60-60V60c0-33.137-26.863-60-60-60"/><path fill="#EAA700" d="M128.331 211.647c7.19 0 13.019-5.829 13.019-13.019s-5.829-13.02-13.019-13.02-13.019 5.829-13.019 13.02 5.828 13.019 13.019 13.019"/><path fill="#EE4C2C" d="M126.84 240.328c-31.336 0-57.896-21.141-72.879-57.993-13.177-32.378-1.648-68.745 7.14-80.152l7.273-9.431 1.055 11.868c1.018 11.661 9.237 25.59 17.238 29.226a8.25 8.25 0 0 0 3.637.813c-9.953-23.542-8.11-48.38-3.189-63.12 9.129-27.446 31.882-46.853 44.974-53.205L138.938 15l-.17 7.613c-.485 21.965.909 40.003 9.286 56.78 5.419 10.91 12.692 21.517 19.117 30.912 1.757 2.582 3.467 5.091 5.091 7.516 12.207 18.316 12.389 37.348 8.486 49.058a61.8 61.8 0 0 1-9.953 18.257c-5.358 6.776-11.71 11.625-18.365 14.037l-3.176-8.74c10.813-3.916 19.323-16.474 22.669-26.499 3.2-9.613 2.945-25.457-7.407-40.949-1.6-2.425-3.285-4.849-5.031-7.431-6.582-9.698-14.049-20.608-19.759-32.003-8.11-16.22-10.292-33.106-10.34-52.804-11.444 7.952-26.669 23.553-33.421 43.737-1.043 3.103-9.698 31.215 4.764 60.611l1.733 3.503-3.164 2.316a15.76 15.76 0 0 1-16.437 1.43c-8.486-3.867-15.76-13.965-19.626-24.244-5.492 14.207-9.698 38.427-.619 60.78 13.48 33.167 36.913 52.126 64.248 52.126 28.015 0 52.817-19.262 66.345-51.519 6.28-14.996 7.274-38.185 2.425-55.169-3.637-12.643-9.007-22.959-18.256-37.506-2.34 4.946-5.54 10.013-8.813 12.195l-5.164-7.734c2.679-1.794 7.273-11.177 8.243-15.759l2.206-11.14 6.243 9.492c12.692 19.31 19.953 32.014 24.487 47.858 5.455 19.105 4.291 44.319-2.825 61.314-7.018 16.741-17.322 30.864-29.808 40.864a71.76 71.76 0 0 1-45.107 16.426"/></svg>
